(Exported by FreeCAD)
(Post Processor: grbl_post)
(Output Time:2025-09-09 12:36:31.836014)
(Begin preamble)
G17 G90
G21
(Begin operation: Fixture)
(Path: Fixture)
G54
(Finish operation: Fixture)
(Begin operation: 4mm_chamfer001)
(Path: 4mm_chamfer001)
(4mm_chamfer001)
(Begin toolchange)
( M6 T4 )
M3 S20000
(Finish operation: 4mm_chamfer001)
(Begin operation: Profile)
(Path: Profile)
(Profile)
(Compensated Tool Path. Diameter: 4.0)
G0 Z2.000
G0 X25.000 Y12.500
G1 X25.000 Y12.500 Z-0.500 F300.000
G1 X25.000 Y-12.500 Z-0.500 F1200.000
G1 X-25.000 Y-12.500 Z-0.500 F1200.000
G1 X-25.000 Y12.500 Z-0.500 F1200.000
G1 X25.000 Y12.500 Z-0.500 F1200.000
G1 X25.000 Y12.500 Z-1.000 F300.000
G1 X25.000 Y-12.500 Z-1.000 F1200.000
G1 X-25.000 Y-12.500 Z-1.000 F1200.000
G1 X-25.000 Y12.500 Z-1.000 F1200.000
G1 X25.000 Y12.500 Z-1.000 F1200.000
G1 X25.000 Y12.500 Z-1.500 F300.000
G1 X25.000 Y-12.500 Z-1.500 F1200.000
G1 X-25.000 Y-12.500 Z-1.500 F1200.000
G1 X-25.000 Y12.500 Z-1.500 F1200.000
G1 X25.000 Y12.500 Z-1.500 F1200.000
G1 X25.000 Y12.500 Z-2.000 F300.000
G1 X25.000 Y-12.500 Z-2.000 F1200.000
G1 X-25.000 Y-12.500 Z-2.000 F1200.000
G1 X-25.000 Y12.500 Z-2.000 F1200.000
G1 X25.000 Y12.500 Z-2.000 F1200.000
G1 X25.000 Y12.500 Z-2.500 F300.000
G1 X25.000 Y-12.500 Z-2.500 F1200.000
G1 X-25.000 Y-12.500 Z-2.500 F1200.000
G1 X-25.000 Y12.500 Z-2.500 F1200.000
G1 X25.000 Y12.500 Z-2.500 F1200.000
G1 X25.000 Y12.500 Z-3.000 F300.000
G1 X25.000 Y-12.500 Z-3.000 F1200.000
G1 X-25.000 Y-12.500 Z-3.000 F1200.000
G1 X-25.000 Y12.500 Z-3.000 F1200.000
G1 X25.000 Y12.500 Z-3.000 F1200.000
G0 Z2.000
G0 Z2.000
(Finish operation: Profile)
(Begin operation: 1-5mm_Drill.fcstd001)
(Path: 1-5mm_Drill.fcstd001)
(1-5mm_Drill.fcstd001)
(Begin toolchange)
( M6 T2 )
M3 S20000
(Finish operation: 1-5mm_Drill.fcstd001)
(Begin operation: Profile003)
(Path: Profile003)
(Profile003)
(Compensated Tool Path. Diameter: 1.5)
G0 Z2.000
G0 X5.423 Y7.515
G1 X5.423 Y7.515 Z-0.500 F300.000
G1 X5.423 Y4.015 Z-0.500 F1200.000
G1 X-5.077 Y4.015 Z-0.500 F1200.000
G1 X-5.077 Y7.515 Z-0.500 F1200.000
G1 X5.423 Y7.515 Z-0.500 F1200.000
G1 X5.423 Y7.515 Z-1.000 F300.000
G1 X5.423 Y4.015 Z-1.000 F1200.000
G1 X-5.077 Y4.015 Z-1.000 F1200.000
G1 X-5.077 Y7.515 Z-1.000 F1200.000
G1 X5.423 Y7.515 Z-1.000 F1200.000
G1 X5.423 Y7.515 Z-1.500 F300.000
G1 X5.423 Y4.015 Z-1.500 F1200.000
G1 X-5.077 Y4.015 Z-1.500 F1200.000
G1 X-5.077 Y7.515 Z-1.500 F1200.000
G1 X5.423 Y7.515 Z-1.500 F1200.000
G1 X5.423 Y7.515 Z-2.000 F300.000
G1 X5.423 Y4.015 Z-2.000 F1200.000
G1 X-5.077 Y4.015 Z-2.000 F1200.000
G1 X-5.077 Y7.515 Z-2.000 F1200.000
G1 X5.423 Y7.515 Z-2.000 F1200.000
G1 X5.423 Y7.515 Z-2.500 F300.000
G1 X5.423 Y4.015 Z-2.500 F1200.000
G1 X-5.077 Y4.015 Z-2.500 F1200.000
G1 X-5.077 Y7.515 Z-2.500 F1200.000
G1 X5.423 Y7.515 Z-2.500 F1200.000
G1 X5.423 Y7.515 Z-3.000 F300.000
G1 X5.423 Y4.015 Z-3.000 F1200.000
G1 X-5.077 Y4.015 Z-3.000 F1200.000
G1 X-5.077 Y7.515 Z-3.000 F1200.000
G1 X5.423 Y7.515 Z-3.000 F1200.000
G0 Z2.000
G0 Z2.000
(Finish operation: Profile003)
(Begin operation: 3-175mm_2Flute_Endmill.fcstd001)
(Path: 3-175mm_2Flute_Endmill.fcstd001)
(3-175mm_2Flute_Endmill.fcstd001)
(Begin toolchange)
( M6 T3 )
M3 S20000
(Finish operation: 3-175mm_2Flute_Endmill.fcstd001)
(Begin operation: Profile001)
(Path: Profile001)
(Profile001)
(Compensated Tool Path. Diameter: 3.17)
G0 Z2.000
G0 X-18.788 Y5.757
G1 X-18.788 Y5.757 Z-0.500 F300.000
G2 X-19.120 Y4.260 Z-0.500 I-0.643 J-0.643 K0.000 F1200.000
G2 X-19.742 Y5.968 Z-0.500 I-0.311 J0.854 K0.000 F1200.000
G2 X-18.788 Y5.757 Z-0.500 I0.311 J-0.854 K0.000 F1200.000
G1 X-18.788 Y5.757 Z-1.000 F300.000
G2 X-19.120 Y4.260 Z-1.000 I-0.643 J-0.643 K0.000 F1200.000
G2 X-19.742 Y5.968 Z-1.000 I-0.311 J0.854 K0.000 F1200.000
G2 X-18.788 Y5.757 Z-1.000 I0.311 J-0.854 K0.000 F1200.000
G1 X-18.788 Y5.757 Z-1.500 F300.000
G2 X-19.120 Y4.260 Z-1.500 I-0.643 J-0.643 K0.000 F1200.000
G2 X-19.742 Y5.968 Z-1.500 I-0.311 J0.854 K0.000 F1200.000
G2 X-18.788 Y5.757 Z-1.500 I0.311 J-0.854 K0.000 F1200.000
G1 X-18.788 Y5.757 Z-2.000 F300.000
G2 X-19.120 Y4.260 Z-2.000 I-0.643 J-0.643 K0.000 F1200.000
G2 X-19.742 Y5.968 Z-2.000 I-0.311 J0.854 K0.000 F1200.000
G2 X-18.788 Y5.757 Z-2.000 I0.311 J-0.854 K0.000 F1200.000
G1 X-18.788 Y5.757 Z-2.500 F300.000
G2 X-19.120 Y4.260 Z-2.500 I-0.643 J-0.643 K0.000 F1200.000
G2 X-19.742 Y5.968 Z-2.500 I-0.311 J0.854 K0.000 F1200.000
G2 X-18.788 Y5.757 Z-2.500 I0.311 J-0.854 K0.000 F1200.000
G1 X-18.788 Y5.757 Z-3.000 F300.000
G2 X-19.120 Y4.260 Z-3.000 I-0.643 J-0.643 K0.000 F1200.000
G2 X-19.742 Y5.968 Z-3.000 I-0.311 J0.854 K0.000 F1200.000
G2 X-18.788 Y5.757 Z-3.000 I0.311 J-0.854 K0.000 F1200.000
G0 Z2.000
G0 Z2.000
(Finish operation: Profile001)
(Begin operation: Profile002)
(Path: Profile002)
(Profile002)
(Compensated Tool Path. Diameter: 3.17)
G0 Z2.000
G0 X16.865 Y5.973
G1 X16.865 Y5.973 Z-0.500 F300.000
G2 X16.534 Y4.476 Z-0.500 I-0.643 J-0.643 K0.000 F1200.000
G2 X15.912 Y6.184 Z-0.500 I-0.311 J0.854 K0.000 F1200.000
G2 X16.865 Y5.973 Z-0.500 I0.311 J-0.854 K0.000 F1200.000
G1 X16.865 Y5.973 Z-1.000 F300.000
G2 X16.534 Y4.476 Z-1.000 I-0.643 J-0.643 K0.000 F1200.000
G2 X15.912 Y6.184 Z-1.000 I-0.311 J0.854 K0.000 F1200.000
G2 X16.865 Y5.973 Z-1.000 I0.311 J-0.854 K0.000 F1200.000
G1 X16.865 Y5.973 Z-1.500 F300.000
G2 X16.534 Y4.476 Z-1.500 I-0.643 J-0.643 K0.000 F1200.000
G2 X15.912 Y6.184 Z-1.500 I-0.311 J0.854 K0.000 F1200.000
G2 X16.865 Y5.973 Z-1.500 I0.311 J-0.854 K0.000 F1200.000
G1 X16.865 Y5.973 Z-2.000 F300.000
G2 X16.534 Y4.476 Z-2.000 I-0.643 J-0.643 K0.000 F1200.000
G2 X15.912 Y6.184 Z-2.000 I-0.311 J0.854 K0.000 F1200.000
G2 X16.865 Y5.973 Z-2.000 I0.311 J-0.854 K0.000 F1200.000
G1 X16.865 Y5.973 Z-2.500 F300.000
G2 X16.534 Y4.476 Z-2.500 I-0.643 J-0.643 K0.000 F1200.000
G2 X15.912 Y6.184 Z-2.500 I-0.311 J0.854 K0.000 F1200.000
G2 X16.865 Y5.973 Z-2.500 I0.311 J-0.854 K0.000 F1200.000
G1 X16.865 Y5.973 Z-3.000 F300.000
G2 X16.534 Y4.476 Z-3.000 I-0.643 J-0.643 K0.000 F1200.000
G2 X15.912 Y6.184 Z-3.000 I-0.311 J0.854 K0.000 F1200.000
G2 X16.865 Y5.973 Z-3.000 I0.311 J-0.854 K0.000 F1200.000
G0 Z2.000
G0 Z2.000
(Finish operation: Profile002)
(Begin operation: Profile004)
(Path: Profile004)
(Profile004)
(Compensated Tool Path. Diameter: 3.17)
G0 Z2.000
G0 X15.236 Y-3.847
G1 X15.236 Y-3.847 Z-0.500 F300.000
G2 X16.414 Y-6.545 Z-0.500 I-1.645 J-2.326 K0.000 F1200.000
G2 X15.437 Y-7.832 Z-0.500 I-1.517 J0.137 K0.000 F1200.000
G2 X13.669 Y-7.362 Z-0.500 I-0.555 J1.471 K0.000 F1200.000
G3 X5.214 Y-4.441 Z-0.500 I-6.974 J-6.488 K0.000 F1200.000
G2 X4.373 Y-4.336 Z-0.500 I-0.273 J1.233 K0.000 F1200.000
G2 X5.371 Y-2.242 Z-0.500 I0.535 J1.029 K0.000 F1200.000
G3 X6.238 Y-2.571 Z-0.500 I1.263 J2.026 K0.000 F1200.000
G1 X13.823 Y-3.333 Z-0.500 F1200.000
G2 X15.236 Y-3.847 Z-0.500 I-0.233 J-2.839 K0.000 F1200.000
G1 X15.236 Y-3.847 Z-1.000 F300.000
G2 X16.414 Y-6.545 Z-1.000 I-1.645 J-2.326 K0.000 F1200.000
G2 X15.437 Y-7.832 Z-1.000 I-1.517 J0.137 K0.000 F1200.000
G2 X13.669 Y-7.362 Z-1.000 I-0.555 J1.471 K0.000 F1200.000
G3 X5.214 Y-4.441 Z-1.000 I-6.974 J-6.488 K0.000 F1200.000
G2 X4.373 Y-4.336 Z-1.000 I-0.273 J1.233 K0.000 F1200.000
G2 X5.371 Y-2.242 Z-1.000 I0.535 J1.029 K0.000 F1200.000
G3 X6.238 Y-2.571 Z-1.000 I1.263 J2.026 K0.000 F1200.000
G1 X13.823 Y-3.333 Z-1.000 F1200.000
G2 X15.236 Y-3.847 Z-1.000 I-0.233 J-2.839 K0.000 F1200.000
G1 X15.236 Y-3.847 Z-1.500 F300.000
G2 X16.414 Y-6.545 Z-1.500 I-1.645 J-2.326 K0.000 F1200.000
G2 X15.437 Y-7.832 Z-1.500 I-1.517 J0.137 K0.000 F1200.000
G2 X13.669 Y-7.362 Z-1.500 I-0.555 J1.471 K0.000 F1200.000
G3 X5.214 Y-4.441 Z-1.500 I-6.974 J-6.488 K0.000 F1200.000
G2 X4.373 Y-4.336 Z-1.500 I-0.273 J1.233 K0.000 F1200.000
G2 X5.371 Y-2.242 Z-1.500 I0.535 J1.029 K0.000 F1200.000
G3 X6.238 Y-2.571 Z-1.500 I1.263 J2.026 K0.000 F1200.000
G1 X13.823 Y-3.333 Z-1.500 F1200.000
G2 X15.236 Y-3.847 Z-1.500 I-0.233 J-2.839 K0.000 F1200.000
G1 X15.236 Y-3.847 Z-2.000 F300.000
G2 X16.414 Y-6.545 Z-2.000 I-1.645 J-2.326 K0.000 F1200.000
G2 X15.437 Y-7.832 Z-2.000 I-1.517 J0.137 K0.000 F1200.000
G2 X13.669 Y-7.362 Z-2.000 I-0.555 J1.471 K0.000 F1200.000
G3 X5.214 Y-4.441 Z-2.000 I-6.974 J-6.488 K0.000 F1200.000
G2 X4.373 Y-4.336 Z-2.000 I-0.273 J1.233 K0.000 F1200.000
G2 X5.371 Y-2.242 Z-2.000 I0.535 J1.029 K0.000 F1200.000
G3 X6.238 Y-2.571 Z-2.000 I1.263 J2.026 K0.000 F1200.000
G1 X13.823 Y-3.333 Z-2.000 F1200.000
G2 X15.236 Y-3.847 Z-2.000 I-0.233 J-2.839 K0.000 F1200.000
G1 X15.236 Y-3.847 Z-2.500 F300.000
G2 X16.414 Y-6.545 Z-2.500 I-1.645 J-2.326 K0.000 F1200.000
G2 X15.437 Y-7.832 Z-2.500 I-1.517 J0.137 K0.000 F1200.000
G2 X13.669 Y-7.362 Z-2.500 I-0.555 J1.471 K0.000 F1200.000
G3 X5.214 Y-4.441 Z-2.500 I-6.974 J-6.488 K0.000 F1200.000
G2 X4.373 Y-4.336 Z-2.500 I-0.273 J1.233 K0.000 F1200.000
G2 X5.371 Y-2.242 Z-2.500 I0.535 J1.029 K0.000 F1200.000
G3 X6.238 Y-2.571 Z-2.500 I1.263 J2.026 K0.000 F1200.000
G1 X13.823 Y-3.333 Z-2.500 F1200.000
G2 X15.236 Y-3.847 Z-2.500 I-0.233 J-2.839 K0.000 F1200.000
G1 X15.236 Y-3.847 Z-3.000 F300.000
G2 X16.414 Y-6.545 Z-3.000 I-1.645 J-2.326 K0.000 F1200.000
G2 X15.437 Y-7.832 Z-3.000 I-1.517 J0.137 K0.000 F1200.000
G2 X13.669 Y-7.362 Z-3.000 I-0.555 J1.471 K0.000 F1200.000
G3 X5.214 Y-4.441 Z-3.000 I-6.974 J-6.488 K0.000 F1200.000
G2 X4.373 Y-4.336 Z-3.000 I-0.273 J1.233 K0.000 F1200.000
G2 X5.371 Y-2.242 Z-3.000 I0.535 J1.029 K0.000 F1200.000
G3 X6.238 Y-2.571 Z-3.000 I1.263 J2.026 K0.000 F1200.000
G1 X13.823 Y-3.333 Z-3.000 F1200.000
G2 X15.236 Y-3.847 Z-3.000 I-0.233 J-2.839 K0.000 F1200.000
G0 Z2.000
G0 Z2.000
(Finish operation: Profile004)
(Begin operation: Profile005)
(Path: Profile005)
(Profile005)
(Compensated Tool Path. Diameter: 3.17)
G0 Z2.000
G0 X15.236 Y-3.847
G1 X15.236 Y-3.847 Z-0.500 F300.000
G2 X16.414 Y-6.545 Z-0.500 I-1.645 J-2.326 K0.000 F1200.000
G2 X15.437 Y-7.832 Z-0.500 I-1.517 J0.137 K0.000 F1200.000
G2 X13.669 Y-7.362 Z-0.500 I-0.555 J1.471 K0.000 F1200.000
G3 X5.214 Y-4.441 Z-0.500 I-6.974 J-6.488 K0.000 F1200.000
G2 X4.373 Y-4.336 Z-0.500 I-0.273 J1.233 K0.000 F1200.000
G2 X5.371 Y-2.242 Z-0.500 I0.535 J1.029 K0.000 F1200.000
G3 X6.238 Y-2.571 Z-0.500 I1.263 J2.026 K0.000 F1200.000
G1 X13.823 Y-3.333 Z-0.500 F1200.000
G2 X15.236 Y-3.847 Z-0.500 I-0.233 J-2.839 K0.000 F1200.000
G0 Z2.000
G0 X-7.977 Y-5.802 Z2.000
G0 X-7.977 Y-5.802 Z2.000
G1 X-7.977 Y-5.802 Z-0.500 F300.000
G2 X-8.460 Y-6.245 Z-0.500 I-0.413 J-0.035 K0.000 F1200.000
G1 X-20.305 Y-6.245 Z-0.500 F1200.000
G1 X-20.462 Y-6.230 Z-0.500 F1200.000
G2 X-20.305 Y-5.415 Z-0.500 I0.087 J0.406 K0.000 F1200.000
G1 X-8.460 Y-5.415 Z-0.500 F1200.000
G1 X-8.303 Y-5.431 Z-0.500 F1200.000
G2 X-7.977 Y-5.802 Z-0.500 I-0.087 J-0.406 K0.000 F1200.000
G1 X-7.977 Y-5.802 Z-1.000 F300.000
G2 X-8.460 Y-6.245 Z-1.000 I-0.413 J-0.035 K0.000 F1200.000
G1 X-20.305 Y-6.245 Z-1.000 F1200.000
G1 X-20.462 Y-6.230 Z-1.000 F1200.000
G2 X-20.305 Y-5.415 Z-1.000 I0.087 J0.406 K0.000 F1200.000
G1 X-8.460 Y-5.415 Z-1.000 F1200.000
G1 X-8.303 Y-5.431 Z-1.000 F1200.000
G2 X-7.977 Y-5.802 Z-1.000 I-0.087 J-0.406 K0.000 F1200.000
G0 Z2.000
G0 X3.769 Y-3.527 Z2.000
G0 X3.769 Y-3.527 Z2.000
G1 X3.769 Y-3.527 Z-1.000 F300.000
G2 X5.371 Y-2.242 Z-1.000 I1.139 J0.221 K0.000 F1200.000
G3 X6.238 Y-2.571 Z-1.000 I1.263 J2.026 K0.000 F1200.000
G1 X13.823 Y-3.333 Z-1.000 F1200.000
G2 X16.414 Y-6.545 Z-1.000 I-0.233 J-2.839 K0.000 F1200.000
G2 X15.437 Y-7.832 Z-1.000 I-1.517 J0.137 K0.000 F1200.000
G2 X13.669 Y-7.362 Z-1.000 I-0.555 J1.471 K0.000 F1200.000
G3 X5.214 Y-4.441 Z-1.000 I-6.974 J-6.488 K0.000 F1200.000
G2 X4.373 Y-4.336 Z-1.000 I-0.273 J1.233 K0.000 F1200.000
G2 X3.769 Y-3.527 Z-1.000 I0.535 J1.029 K0.000 F1200.000
G1 X3.769 Y-3.527 Z-1.500 F300.000
G2 X5.371 Y-2.242 Z-1.500 I1.139 J0.221 K0.000 F1200.000
G3 X6.238 Y-2.571 Z-1.500 I1.263 J2.026 K0.000 F1200.000
G1 X13.823 Y-3.333 Z-1.500 F1200.000
G2 X16.414 Y-6.545 Z-1.500 I-0.233 J-2.839 K0.000 F1200.000
G2 X15.437 Y-7.832 Z-1.500 I-1.517 J0.137 K0.000 F1200.000
G2 X13.669 Y-7.362 Z-1.500 I-0.555 J1.471 K0.000 F1200.000
G3 X5.214 Y-4.441 Z-1.500 I-6.974 J-6.488 K0.000 F1200.000
G2 X4.373 Y-4.336 Z-1.500 I-0.273 J1.233 K0.000 F1200.000
G2 X3.769 Y-3.527 Z-1.500 I0.535 J1.029 K0.000 F1200.000
G0 Z2.000
G0 X-7.983 Y-5.759 Z2.000
G0 X-7.983 Y-5.759 Z2.000
G1 X-7.983 Y-5.759 Z-1.500 F300.000
G2 X-8.460 Y-6.245 Z-1.500 I-0.408 J-0.077 K0.000 F1200.000
G1 X-20.305 Y-6.245 Z-1.500 F1200.000
G1 X-20.462 Y-6.230 Z-1.500 F1200.000
G2 X-20.305 Y-5.415 Z-1.500 I0.087 J0.406 K0.000 F1200.000
G1 X-8.460 Y-5.415 Z-1.500 F1200.000
G1 X-8.303 Y-5.431 Z-1.500 F1200.000
G2 X-7.983 Y-5.759 Z-1.500 I-0.087 J-0.406 K0.000 F1200.000
G1 X-7.983 Y-5.759 Z-2.000 F300.000
G2 X-8.460 Y-6.245 Z-2.000 I-0.408 J-0.077 K0.000 F1200.000
G1 X-20.305 Y-6.245 Z-2.000 F1200.000
G1 X-20.462 Y-6.230 Z-2.000 F1200.000
G2 X-20.305 Y-5.415 Z-2.000 I0.087 J0.406 K0.000 F1200.000
G1 X-8.460 Y-5.415 Z-2.000 F1200.000
G1 X-8.303 Y-5.431 Z-2.000 F1200.000
G2 X-7.983 Y-5.759 Z-2.000 I-0.087 J-0.406 K0.000 F1200.000
G0 Z2.000
G0 X3.768 Y-3.523 Z2.000
G0 X3.768 Y-3.523 Z2.000
G1 X3.768 Y-3.523 Z-2.000 F300.000
G2 X5.371 Y-2.242 Z-2.000 I1.140 J0.217 K0.000 F1200.000
G3 X6.238 Y-2.571 Z-2.000 I1.263 J2.026 K0.000 F1200.000
G1 X13.823 Y-3.333 Z-2.000 F1200.000
G2 X16.414 Y-6.545 Z-2.000 I-0.233 J-2.839 K0.000 F1200.000
G2 X15.437 Y-7.832 Z-2.000 I-1.517 J0.137 K0.000 F1200.000
G2 X13.669 Y-7.362 Z-2.000 I-0.555 J1.471 K0.000 F1200.000
G3 X5.214 Y-4.441 Z-2.000 I-6.974 J-6.488 K0.000 F1200.000
G2 X4.373 Y-4.336 Z-2.000 I-0.273 J1.233 K0.000 F1200.000
G2 X3.768 Y-3.523 Z-2.000 I0.535 J1.029 K0.000 F1200.000
G1 X3.768 Y-3.523 Z-2.500 F300.000
G2 X5.371 Y-2.242 Z-2.500 I1.140 J0.217 K0.000 F1200.000
G3 X6.238 Y-2.571 Z-2.500 I1.263 J2.026 K0.000 F1200.000
G1 X13.823 Y-3.333 Z-2.500 F1200.000
G2 X16.414 Y-6.545 Z-2.500 I-0.233 J-2.839 K0.000 F1200.000
G2 X15.437 Y-7.832 Z-2.500 I-1.517 J0.137 K0.000 F1200.000
G2 X13.669 Y-7.362 Z-2.500 I-0.555 J1.471 K0.000 F1200.000
G3 X5.214 Y-4.441 Z-2.500 I-6.974 J-6.488 K0.000 F1200.000
G2 X4.373 Y-4.336 Z-2.500 I-0.273 J1.233 K0.000 F1200.000
G2 X3.768 Y-3.523 Z-2.500 I0.535 J1.029 K0.000 F1200.000
G0 Z2.000
G0 X-7.983 Y-5.759 Z2.000
G0 X-7.983 Y-5.759 Z2.000
G1 X-7.983 Y-5.759 Z-2.500 F300.000
G2 X-8.460 Y-6.245 Z-2.500 I-0.408 J-0.078 K0.000 F1200.000
G1 X-20.305 Y-6.245 Z-2.500 F1200.000
G1 X-20.462 Y-6.230 Z-2.500 F1200.000
G2 X-20.305 Y-5.415 Z-2.500 I0.087 J0.406 K0.000 F1200.000
G1 X-8.460 Y-5.415 Z-2.500 F1200.000
G1 X-8.303 Y-5.431 Z-2.500 F1200.000
G2 X-7.983 Y-5.759 Z-2.500 I-0.087 J-0.406 K0.000 F1200.000
G1 X-7.983 Y-5.759 Z-3.000 F300.000
G2 X-8.460 Y-6.245 Z-3.000 I-0.408 J-0.078 K0.000 F1200.000
G1 X-20.305 Y-6.245 Z-3.000 F1200.000
G1 X-20.462 Y-6.230 Z-3.000 F1200.000
G2 X-20.305 Y-5.415 Z-3.000 I0.087 J0.406 K0.000 F1200.000
G1 X-8.460 Y-5.415 Z-3.000 F1200.000
G1 X-8.303 Y-5.431 Z-3.000 F1200.000
G2 X-7.983 Y-5.759 Z-3.000 I-0.087 J-0.406 K0.000 F1200.000
G0 Z2.000
G0 X3.768 Y-3.523 Z2.000
G0 X3.768 Y-3.523 Z2.000
G1 X3.768 Y-3.523 Z-3.000 F300.000
G2 X5.371 Y-2.242 Z-3.000 I1.140 J0.217 K0.000 F1200.000
G3 X6.238 Y-2.571 Z-3.000 I1.263 J2.026 K0.000 F1200.000
G1 X13.823 Y-3.333 Z-3.000 F1200.000
G2 X16.414 Y-6.545 Z-3.000 I-0.233 J-2.839 K0.000 F1200.000
G2 X15.437 Y-7.832 Z-3.000 I-1.517 J0.137 K0.000 F1200.000
G2 X13.669 Y-7.362 Z-3.000 I-0.555 J1.471 K0.000 F1200.000
G3 X5.214 Y-4.441 Z-3.000 I-6.974 J-6.488 K0.000 F1200.000
G2 X4.373 Y-4.336 Z-3.000 I-0.273 J1.233 K0.000 F1200.000
G2 X3.768 Y-3.523 Z-3.000 I0.535 J1.029 K0.000 F1200.000
G0 Z2.000
G0 Z2.000
(Finish operation: Profile005)
(Begin operation: Profile006)
(Path: Profile006)
(Profile006)
(Compensated Tool Path. Diameter: 3.17)
G0 Z2.000
G0 X26.121 Y13.621
G1 X26.121 Y13.621 Z-0.500 F300.000
G2 X26.585 Y12.500 Z-0.500 I-1.121 J-1.121 K0.000 F1200.000
G1 X26.585 Y-12.500 Z-0.500 F1200.000
G2 X25.000 Y-14.085 Z-0.500 I-1.585 J0.000 K0.000 F1200.000
G1 X-25.000 Y-14.085 Z-0.500 F1200.000
G2 X-26.585 Y-12.500 Z-0.500 I0.000 J1.585 K0.000 F1200.000
G1 X-26.585 Y12.500 Z-0.500 F1200.000
G2 X-25.000 Y14.085 Z-0.500 I1.585 J-0.000 K0.000 F1200.000
G1 X25.000 Y14.085 Z-0.500 F1200.000
G2 X26.121 Y13.621 Z-0.500 I-0.000 J-1.585 K0.000 F1200.000
G1 X26.121 Y13.621 Z-1.000 F300.000
G2 X26.585 Y12.500 Z-1.000 I-1.121 J-1.121 K0.000 F1200.000
G1 X26.585 Y-12.500 Z-1.000 F1200.000
G2 X25.000 Y-14.085 Z-1.000 I-1.585 J0.000 K0.000 F1200.000
G1 X-25.000 Y-14.085 Z-1.000 F1200.000
G2 X-26.585 Y-12.500 Z-1.000 I0.000 J1.585 K0.000 F1200.000
G1 X-26.585 Y12.500 Z-1.000 F1200.000
G2 X-25.000 Y14.085 Z-1.000 I1.585 J-0.000 K0.000 F1200.000
G1 X25.000 Y14.085 Z-1.000 F1200.000
G2 X26.121 Y13.621 Z-1.000 I-0.000 J-1.585 K0.000 F1200.000
G1 X26.121 Y13.621 Z-1.500 F300.000
G2 X26.585 Y12.500 Z-1.500 I-1.121 J-1.121 K0.000 F1200.000
G1 X26.585 Y-12.500 Z-1.500 F1200.000
G2 X25.000 Y-14.085 Z-1.500 I-1.585 J0.000 K0.000 F1200.000
G1 X-25.000 Y-14.085 Z-1.500 F1200.000
G2 X-26.585 Y-12.500 Z-1.500 I0.000 J1.585 K0.000 F1200.000
G1 X-26.585 Y12.500 Z-1.500 F1200.000
G2 X-25.000 Y14.085 Z-1.500 I1.585 J-0.000 K0.000 F1200.000
G1 X25.000 Y14.085 Z-1.500 F1200.000
G2 X26.121 Y13.621 Z-1.500 I-0.000 J-1.585 K0.000 F1200.000
G1 X26.121 Y13.621 Z-2.000 F300.000
G2 X26.585 Y12.500 Z-2.000 I-1.121 J-1.121 K0.000 F1200.000
G1 X26.585 Y-12.500 Z-2.000 F1200.000
G2 X25.000 Y-14.085 Z-2.000 I-1.585 J0.000 K0.000 F1200.000
G1 X-25.000 Y-14.085 Z-2.000 F1200.000
G2 X-26.585 Y-12.500 Z-2.000 I0.000 J1.585 K0.000 F1200.000
G1 X-26.585 Y12.500 Z-2.000 F1200.000
G2 X-25.000 Y14.085 Z-2.000 I1.585 J-0.000 K0.000 F1200.000
G1 X25.000 Y14.085 Z-2.000 F1200.000
G2 X26.121 Y13.621 Z-2.000 I-0.000 J-1.585 K0.000 F1200.000
G1 X26.121 Y13.621 Z-2.500 F300.000
G2 X26.585 Y12.500 Z-2.500 I-1.121 J-1.121 K0.000 F1200.000
G1 X26.585 Y-12.500 Z-2.500 F1200.000
G2 X25.000 Y-14.085 Z-2.500 I-1.585 J0.000 K0.000 F1200.000
G1 X-25.000 Y-14.085 Z-2.500 F1200.000
G2 X-26.585 Y-12.500 Z-2.500 I0.000 J1.585 K0.000 F1200.000
G1 X-26.585 Y12.500 Z-2.500 F1200.000
G2 X-25.000 Y14.085 Z-2.500 I1.585 J-0.000 K0.000 F1200.000
G1 X25.000 Y14.085 Z-2.500 F1200.000
G2 X26.121 Y13.621 Z-2.500 I-0.000 J-1.585 K0.000 F1200.000
G1 X26.121 Y13.621 Z-3.000 F300.000
G2 X26.585 Y12.500 Z-3.000 I-1.121 J-1.121 K0.000 F1200.000
G1 X26.585 Y-12.500 Z-3.000 F1200.000
G2 X25.000 Y-14.085 Z-3.000 I-1.585 J0.000 K0.000 F1200.000
G1 X-25.000 Y-14.085 Z-3.000 F1200.000
G2 X-26.585 Y-12.500 Z-3.000 I0.000 J1.585 K0.000 F1200.000
G1 X-26.585 Y12.500 Z-3.000 F1200.000
G2 X-25.000 Y14.085 Z-3.000 I1.585 J-0.000 K0.000 F1200.000
G1 X25.000 Y14.085 Z-3.000 F1200.000
G2 X26.121 Y13.621 Z-3.000 I-0.000 J-1.585 K0.000 F1200.000
G0 Z2.000
G0 Z2.000
(Finish operation: Profile006)
(Begin postamble)
M5
G17 G90
M2